src/lib/packages/icons/src/assets/line/video.svg

<svg width="24" height="24" viewBox="0 0 24 24" fill="none" xmlns="http://www.w3.org/2000/svg">
<path d="M21.8999 6.20801C21.3739 5.95601 20.766 6.02492 20.312 6.38892L17.75 8.43896V8C17.75 5.582 16.418 4.25 14 4.25H5C2.582 4.25 1.25 5.582 1.25 8V16C1.25 18.418 2.582 19.75 5 19.75H14C16.418 19.75 17.75 18.418 17.75 16V15.561L20.313 17.6121C20.585 17.8301 20.9141 17.9419 21.2471 17.9419C21.4681 17.9419 21.6899 17.893 21.8999 17.792C22.4229 17.54 22.75 17.0209 22.75 16.4399V7.56104C22.75 6.97904 22.4239 6.46101 21.8999 6.20801ZM16.25 16C16.25 17.577 15.577 18.25 14 18.25H5C3.423 18.25 2.75 17.577 2.75 16V8C2.75 6.423 3.423 5.75 5 5.75H14C15.577 5.75 16.25 6.423 16.25 8V16ZM21.25 16.4399L17.75 13.6399V10.3611L21.25 7.56104V16.4399Z" fill="currentColor"/>
</svg>

<svg xmlns="http://www.w3.org/2000/svg" width="24" height="24" fill="none"><path fill="currentColor" d="M21.9 6.208a1.49 1.49 0 0 0-1.588.18L17.75 8.44V8c0-2.418-1.332-3.75-3.75-3.75H5C2.582 4.25 1.25 5.582 1.25 8v8c0 2.418 1.332 3.75 3.75 3.75h9c2.418 0 3.75-1.332 3.75-3.75v-.439l2.563 2.051a1.49 1.49 0 0 0 1.587.18c.523-.252.85-.771.85-1.352V7.56c0-.582-.326-1.1-.85-1.353ZM16.25 16c0 1.577-.673 2.25-2.25 2.25H5c-1.577 0-2.25-.673-2.25-2.25V8c0-1.577.673-2.25 2.25-2.25h9c1.577 0 2.25.673 2.25 2.25v8Zm5 .44-3.5-2.8v-3.28l3.5-2.8v8.879Z"/></svg>
